src/shared/icons/complete-tick.svg

<?xml version="1.0" encoding="UTF-8" standalone="no"?>
<svg width="42px" height="43px" viewBox="0 0 42 43" version="1.1" xmlns="http://www.w3.org/2000/svg" xmlns:xlink="http://www.w3.org/1999/xlink">
    <!-- Generator: Sketch 42 (36781) - http://www.bohemiancoding.com/sketch -->
    <title>Tick</title>
    <desc>Created with Sketch.</desc>
    <defs></defs>
    <g id="Application-submitted" stroke="none" stroke-width="1" fill="none" fill-rule="evenodd">
        <g id="desktop-Application-submitted-UI" transform="translate(-100.000000, -251.000000)" fill="#000000">
            <g id="Progress-/-completed" transform="translate(100.000000, 251.000000)">
                <path d="M35.109375,17.1417036 C35.109375,17.6065474 34.9453125,18.0440474 34.6171875,18.3721724 L19.7695312,33.2198286 C19.4414062,33.5479536 18.9765625,33.7393599 18.5117188,33.7393599 C18.0742188,33.7393599 17.609375,33.5479536 17.28125,33.2198286 L7.3828125,23.3213911 C7.0546875,22.9932661 6.890625,22.5557661 6.890625,22.0909224 C6.890625,21.6260786 7.0546875,21.1612349 7.3828125,20.8331099 L9.87109375,18.3721724 C10.1992188,18.0440474 10.6367188,17.8526411 11.1015625,17.8526411 C11.5664062,17.8526411 12.0039062,18.0440474 12.3320312,18.3721724 L18.5117188,24.5518599 L29.6679688,13.4229536 C29.9960938,13.0948286 30.4335938,12.9034224 30.8984375,12.9034224 C31.3632812,12.9034224 31.8007812,13.0948286 32.1289062,13.4229536 L34.6171875,15.8838911 C34.9453125,16.2120161 35.109375,16.6768599 35.109375,17.1417036 Z M42,21.5713911 C42,9.97764111 32.59375,0.571391106 21,0.571391106 C9.40625,0.571391106 0,9.97764111 0,21.5713911 C0,33.1651411 9.40625,42.5713911 21,42.5713911 C32.59375,42.5713911 42,33.1651411 42,21.5713911 Z" id="Tick"></path>
            </g>
        </g>
    </g>
</svg>

<svg width="42" height="43" viewBox="0 0 42 43" xmlns="http://www.w3.org/2000/svg"><title>Tick</title><path d="M35.11 17.142c0 .465-.165.902-.493 1.23L19.77 33.22c-.329.328-.793.52-1.258.52-.438 0-.903-.192-1.23-.52l-9.9-9.899a1.714 1.714 0 0 1-.491-1.23c0-.465.164-.93.492-1.258l2.488-2.46a1.74 1.74 0 0 1 1.23-.52c.465 0 .903.191 1.231.52l6.18 6.179 11.156-11.129a1.74 1.74 0 0 1 1.23-.52c.465 0 .903.192 1.23.52l2.49 2.46c.327.329.491.794.491 1.259zm6.89 4.43c0-11.594-9.406-21-21-21s-21 9.406-21 21c0 11.593 9.406 21 21 21s21-9.407 21-21z" fill="#000" fill-rule="evenodd"/></svg>
